img/c/cloudbees.com.svg

<svg xmlns="http://www.w3.org/2000/svg" viewBox="0 0 22.922 22.381"><defs><linearGradient id="c" x1="16.086" x2="20.715" y1="2.5896" y2="15.474" gradientTransform="scale(.82742 1.2086)" gradientUnits="userSpaceOnUse"><stop stop-color="#77CFFE" offset="0"/><stop stop-color="#289CE1" offset="1"/></linearGradient><linearGradient id="b" x1="3.8252" x2="7.903" y1="1.2411" y2="6.9057" gradientTransform="scale(.91407 1.094)" gradientUnits="userSpaceOnUse"> <stop stop-color="#289CE1" offset="0"/> <stop stop-color="#006AB0" offset="1"/></linearGradient><linearGradient id="a" x1="13.086" x2="16.43" y1="11.223" y2="11.223" gradientTransform="scale(1.0037 .99627)" gradientUnits="userSpaceOnUse"> <stop stop-color="#006AB0" stop-opacity=".5" offset="0"/> <stop stop-color="#006AB0" stop-opacity="0" offset="1"/></linearGradient> </defs> <path d="m13.141 9.491v3.33h3.19c1.76 0 3.186 1.395 3.186 3.116s-1.43 3.117-3.19 3.117c-1.759 0-3.187-1.41-3.187-3.132l1e-3 -9.527c0-1.427-0.49-2.867-1.372-3.971-0.334-0.387-0.223-0.379-0.62-0.052a0.436 0.436 0 0 0-0.028 0.025l-1.836 1.797c-0.308 0.301-0.277 0.193-0.062 0.53a3.06 3.06 0 0 1 0.507 1.671v9.542c0 3.562 2.957 6.444 6.598 6.444 3.64 0 6.594-2.882 6.594-6.444 0-3.561-2.954-6.446-6.594-6.446h-3.188z" fill="url(#c)"/><path d="m6.56 3.34c0.702 0 1.316 0.18 1.842 0.54l2.398-2.361c-1.193-1.013-2.606-1.519-4.24-1.519-3.617 0-6.56 2.9-6.56 6.463 0 3.564 2.943 6.463 6.56 6.463h2.32v-3.339h-2.32c-1.748 0-3.17-1.401-3.17-3.124s1.421-3.123 3.17-3.123z" fill="url(#b)"/><path d="m13.135 9.515h3.357v3.332h-3.357z" fill="url(#a)"/></svg>

<svg xmlns="http://www.w3.org/2000/svg" viewBox="0 0 22.922 22.381"><defs><linearGradient id="a" x1="16.086" x2="20.715" y1="2.59" y2="15.474" gradientTransform="scale(.82742 1.2086)" gradientUnits="userSpaceOnUse"><stop stop-color="#77CFFE" offset="0"/><stop stop-color="#289CE1" offset="1"/></linearGradient><linearGradient id="b" x1="3.825" x2="7.903" y1="1.241" y2="6.906" gradientTransform="scale(.91407 1.094)" gradientUnits="userSpaceOnUse"><stop stop-color="#289CE1" offset="0"/><stop stop-color="#006AB0" offset="1"/></linearGradient><linearGradient id="c" x1="13.086" x2="16.43" y1="11.223" y2="11.223" gradientTransform="scale(1.0037 .99627)" gradientUnits="userSpaceOnUse"><stop stop-color="#006AB0" stop-opacity=".5" offset="0"/><stop stop-color="#006AB0" stop-opacity="0" offset="1"/></linearGradient></defs><path d="M13.141 9.491v3.33h3.19c1.76 0 3.186 1.395 3.186 3.116s-1.43 3.117-3.19 3.117c-1.759 0-3.187-1.41-3.187-3.132l.001-9.527c0-1.427-.49-2.867-1.372-3.971-.334-.387-.223-.379-.62-.052a.436.436 0 0 0-.028.025L9.285 4.194c-.308.301-.277.193-.062.53a3.06 3.06 0 0 1 .507 1.671v9.542c0 3.562 2.957 6.444 6.598 6.444 3.64 0 6.594-2.882 6.594-6.444 0-3.561-2.954-6.446-6.594-6.446H13.14z" fill="url(#a)"/><path d="M6.56 3.34c.702 0 1.316.18 1.842.54L10.8 1.519C9.607.506 8.194 0 6.56 0 2.943 0 0 2.9 0 6.463c0 3.564 2.943 6.463 6.56 6.463h2.32V9.587H6.56c-1.748 0-3.17-1.401-3.17-3.124S4.811 3.34 6.56 3.34z" fill="url(#b)"/><path d="M13.135 9.515h3.357v3.332h-3.357z" fill="url(#c)"/></svg>
